src/pos-icons/pentagon-outline.svg

<svg height="24" viewBox="0 0 24 24" width="24" xmlns="http://www.w3.org/2000/svg"><path d="m12 5 7.6 5.5-2.9 8.9h-9.4l-2.9-8.9zm0-2.5-10 7.3 3.8 11.7h12.3l3.9-11.7z"/></svg>

<?xml version="1.0" encoding="UTF-8"?><!DOCTYPE svg PUBLIC "-//W3C//DTD SVG 1.1//EN" "http://www.w3.org/Graphics/SVG/1.1/DTD/svg11.dtd"><svg xmlns="http://www.w3.org/2000/svg" xmlns:xlink="http://www.w3.org/1999/xlink" version="1.1" id="mdi-pentagon-outline" width="24" height="24" viewBox="0 0 24 24"><path d="M12,5L19.6,10.5L16.7,19.4H7.3L4.4,10.5L12,5M12,2.5L2,9.8L5.8,21.5H18.1L22,9.8L12,2.5Z" /></svg>
